Newaita-dark/.DP/48/octopi_green.svg

<svg xmlns="http://www.w3.org/2000/svg" xmlns:xlink="http://www.w3.org/1999/xlink" width="48px" height="48px" viewBox="0 0 48 48" version="1.1">
<g id="surface1">
<path style=" stroke:none;fill-rule:nonzero;fill:rgb(14.901961%,65.098041%,60.392159%);fill-opacity:1;" d="M 23.816406 4.34375 C 15.019531 4.34375 7.9375 12.308594 7.9375 22.207031 L 7.9375 38.082031 C 7.9375 39.136719 8.351562 40.144531 9.097656 40.890625 C 9.84375 41.636719 10.851562 42.054688 11.90625 42.050781 C 12.960938 42.054688 13.96875 41.636719 14.714844 40.890625 C 15.460938 40.144531 15.878906 39.136719 15.875 38.082031 L 15.875 34.113281 C 15.875 33.585938 16.082031 33.082031 16.453125 32.707031 C 16.828125 32.335938 17.332031 32.128906 17.859375 32.128906 C 18.960938 32.128906 19.84375 33.011719 19.84375 34.113281 L 19.84375 38.082031 C 19.84375 40.28125 21.617188 42.050781 23.816406 42.050781 C 24.871094 42.054688 25.878906 41.636719 26.625 40.890625 C 27.371094 40.144531 27.789062 39.136719 27.785156 38.082031 L 27.785156 34.113281 C 27.785156 33.011719 28.667969 32.128906 29.769531 32.128906 C 30.296875 32.128906 30.800781 32.335938 31.175781 32.707031 C 31.546875 33.082031 31.753906 33.585938 31.753906 34.113281 L 31.753906 38.082031 C 31.75 39.136719 32.167969 40.144531 32.914062 40.890625 C 33.660156 41.636719 34.667969 42.054688 35.722656 42.050781 C 36.777344 42.054688 37.785156 41.636719 38.53125 40.890625 C 39.277344 40.144531 39.695312 39.136719 39.691406 38.082031 L 39.691406 22.207031 C 39.691406 12.308594 32.609375 4.34375 23.816406 4.34375 Z M 17.859375 14.265625 C 20.058594 14.265625 21.832031 16.039062 21.832031 18.234375 C 21.832031 20.433594 20.058594 22.207031 17.859375 22.207031 C 16.804688 22.207031 15.796875 21.789062 15.050781 21.042969 C 14.304688 20.296875 13.890625 19.289062 13.890625 18.234375 C 13.890625 17.179688 14.308594 16.171875 15.050781 15.425781 C 15.796875 14.683594 16.804688 14.265625 17.859375 14.265625 Z M 29.769531 14.265625 C 31.96875 14.265625 33.738281 16.039062 33.738281 18.234375 C 33.738281 20.433594 31.96875 22.207031 29.769531 22.207031 C 28.714844 22.207031 27.703125 21.789062 26.960938 21.042969 C 26.214844 20.300781 25.796875 19.289062 25.800781 18.234375 C 25.800781 17.179688 26.21875 16.171875 26.960938 15.425781 C 27.707031 14.679688 28.71875 14.265625 29.769531 14.265625 Z M 18.851562 15.753906 C 17.480469 15.753906 16.371094 16.863281 16.371094 18.234375 C 16.371094 18.894531 16.632812 19.523438 17.097656 19.992188 C 17.5625 20.457031 18.195312 20.71875 18.851562 20.71875 C 19.511719 20.71875 20.144531 20.457031 20.609375 19.992188 C 21.074219 19.527344 21.335938 18.894531 21.335938 18.234375 C 21.335938 17.574219 21.074219 16.945312 20.609375 16.480469 C 20.140625 16.015625 19.511719 15.753906 18.851562 15.753906 Z M 30.761719 15.753906 C 30.105469 15.753906 29.472656 16.015625 29.007812 16.480469 C 28.542969 16.945312 28.28125 17.574219 28.28125 18.234375 C 28.28125 18.894531 28.539062 19.527344 29.003906 19.992188 C 29.472656 20.457031 30.101562 20.71875 30.761719 20.71875 C 32.136719 20.71875 33.242188 19.609375 33.242188 18.234375 C 33.242188 17.574219 32.980469 16.945312 32.515625 16.480469 C 32.050781 16.015625 31.421875 15.753906 30.761719 15.753906 Z M 30.761719 15.753906 "/>
</g>
</svg>

<svg xmlns="http://www.w3.org/2000/svg" width="64" height="64" viewBox="0 0 48 48"><path d="M23.816 4.344c-8.796 0-15.878 7.965-15.878 17.863v15.875a3.96 3.96 0 0 0 3.968 3.969 3.96 3.96 0 0 0 3.969-3.969v-3.969a1.98 1.98 0 0 1 1.984-1.984c1.102 0 1.985.883 1.985 1.984v3.969c0 2.2 1.773 3.969 3.972 3.969a3.962 3.962 0 0 0 3.97-3.969v-3.969c0-1.101.882-1.984 1.984-1.984a1.98 1.98 0 0 1 1.984 1.984v3.969a3.96 3.96 0 0 0 3.969 3.969 3.96 3.96 0 0 0 3.968-3.969V22.207c0-9.898-7.082-17.863-15.875-17.863zm-5.957 9.922c2.2 0 3.973 1.773 3.973 3.968 0 2.2-1.773 3.973-3.973 3.973a3.965 3.965 0 0 1-3.968-3.973 3.964 3.964 0 0 1 3.968-3.968zm11.91 0c2.2 0 3.97 1.773 3.97 3.968 0 2.2-1.77 3.973-3.97 3.973a3.963 3.963 0 0 1-3.968-3.973 3.962 3.962 0 0 1 3.969-3.968zm-10.917 1.488a2.479 2.479 0 0 0-2.48 2.48 2.48 2.48 0 0 0 2.48 2.485 2.48 2.48 0 0 0 2.484-2.485 2.48 2.48 0 0 0-2.484-2.48zm11.91 0a2.476 2.476 0 0 0-2.48 2.48 2.477 2.477 0 0 0 2.48 2.485c1.375 0 2.48-1.11 2.48-2.485a2.476 2.476 0 0 0-2.48-2.48zm0 0" fill="#26a69a"/></svg>
